X:80
T:Black and Blue. ThoH.080
Q:3/8=100
T:Long Room of Scarborough,aka. ThoH.080
M:9/8
L:1/8
B:Thompson's Compleat Collection of 120 Favourite Hornpipes.
Z:Village Music Project, Simon Wilson 2016
O:England.
K:G
G3B2G Bcd|GBG Bcd AFD|G3B2G Bcd|EFE EFG AFD:|
|:g2g gag fed|g2g gag afd|g2g gag fed|efg dcB AFD:|
|:BGG BGGc2d|BGG BGG AFD|BGG BGGc2d|EFE EFG AFD:|

